; generated by PrusaSlicer 2.2.0+win64 on 2021-11-07 at 14:45:42 UTC

; 

; external perimeters extrusion width = 0.45mm
; perimeters extrusion width = 0.45mm
; infill extrusion width = 0.45mm
; solid infill extrusion width = 0.45mm
; top infill extrusion width = 0.40mm
; support material extrusion width = 0.35mm
; first layer extrusion width = 0.42mm

M73 P0 R32
M73 Q0 S32
M201 X1000 Y1000 Z200 E5000 ; sets maximum accelerations, mm/sec^2
M203 X200 Y200 Z12 E120 ; sets maximum feedrates, mm/sec
M204 P1250 R1250 T1250 ; sets acceleration (P, T) and retract acceleration (R), mm/sec^2
M205 X8.00 Y8.00 Z0.40 E4.50 ; sets the jerk limits, mm/sec
M205 S0 T0 ; sets the minimum extruding and travel feed rate, mm/sec
M107
M862.3 P "MK3S" ; printer model check
M862.1 P0.4 ; nozzle diameter check
M115 U3.10.0 ; tell printer latest fw version
G90 ; use absolute coordinates
M83 ; extruder relative mode
M104 S230 ; set extruder temp
M140 S85 ; set bed temp
M190 S85 ; wait for bed temp
M109 S230 ; wait for extruder temp
G28 W ; home all without mesh bed level
G80 ; mesh bed leveling
G1 Y-3.0 F1000.0 ; go outside print area
G92 E0.0
G1 X60.0 E9.0 F1000.0 ; intro line
M73 Q0 S32
M73 P0 R32
G1 X100.0 E12.5 F1000.0 ; intro line
G92 E0.0
M221 S95

; Don't change E values below. Excessive value can damage the printer.
M907 E430 ; set extruder motor current
G21 ; set units to millimeters
G90 ; use absolute coordinates
M83 ; use relative distances for extrusion
M900 K0.08 ; Filament gcode LA 1.5
M900 K45 ; Filament gcode LA 1.0
;BEFORE_LAYER_CHANGE
G92 E0.0
;0.2


G1 E-1.40000 F2100.00000
G1 Z0.200 F10800.000
;AFTER_LAYER_CHANGE
;0.2
G1 Z0.400
G1 X102.126 Y88.840
G1 Z0.200
G1 E1.40000 F2100.00000
M204 S1000
G1 F1200.000
G1 X102.593 Y88.445 E0.01917
G1 X103.141 Y88.183 E0.01906
G1 X103.738 Y88.068 E0.01906
G1 X122.738 Y88.064 E0.59572
G1 X123.421 Y88.164 E0.02166
G1 X124.050 Y88.459 E0.02178
G1 X140.528 Y99.572 E0.62319
G1 X141.910 Y100.773 E0.05740
G1 X142.824 Y101.857 E0.04444
G1 X143.659 Y103.223 E0.05020
G1 X144.258 Y104.674 E0.04923
G1 X144.631 Y106.238 E0.05042
G1 X144.751 Y107.796 E0.04898
G1 X144.627 Y109.389 E0.05012
G1 X144.257 Y110.925 E0.04953
G1 X143.639 Y112.415 E0.05058
G1 X142.711 Y113.888 E0.05458
G1 X141.786 Y114.961 E0.04442
G1 X140.710 Y115.889 E0.04456
G1 X139.226 Y116.821 E0.05493
G1 X137.582 Y117.480 E0.05554
G1 X136.292 Y117.788 E0.04160
G1 X114.003 Y122.085 E0.71173
G1 X106.077 Y122.105 E0.24849
G1 X105.543 Y122.028 E0.01692
G1 X105.043 Y121.835 E0.01680
G1 X104.585 Y121.522 E0.01740
G1 X104.214 Y121.114 E0.01728
G1 X103.946 Y120.629 E0.01740
G1 X103.797 Y120.094 E0.01740
G1 X101.518 Y99.106 E0.66194
G1 X101.507 Y90.376 E0.27373
G1 X101.583 Y89.842 E0.01692
G1 X101.778 Y89.338 E0.01692
G1 X102.092 Y88.889 E0.01718
; printing object antenna_top.stl id:0 copy 0
G1 F8640.000
G1 X102.593 Y88.445 E-0.15465
G1 X103.141 Y88.183 E-0.14034
G1 X103.738 Y88.068 E-0.14034
G1 X107.613 Y88.067 E-0.89468
G1 E-0.07000 F2100.00000
G1 Z0.400 F10800.000
G1 X103.884 Y98.869
G1 Z0.200
G1 E1.40000 F2100.00000
G1 F1200.000
G1 X103.884 Y90.441 E0.26426
G1 X104.638 Y90.441 E0.02365
G1 X104.638 Y98.699 E0.25894
G1 X105.392 Y98.699 E0.02365
G1 X105.392 Y90.441 E0.25894
G1 X106.146 Y90.441 E0.02365
G1 X106.146 Y105.652 E0.47696
G1 X106.900 Y105.652 E0.02365
G1 X106.900 Y90.441 E0.47696
G1 X107.654 Y90.441 E0.02365
G1 X107.654 Y105.822 E0.48228
G1 F8640.000
G1 X107.654 Y100.062 E-1.33000
G1 E-0.07000 F2100.00000
G1 Z0.400 F10800.000
G1 X108.948 Y102.825
G1 Z0.200
G1 E1.40000 F2100.00000
G1 F1200.000
G1 X108.948 Y98.047 E0.12202
G1 X109.466 Y98.047 E0.01322
G1 X109.466 Y102.682 E0.11837
G1 X109.984 Y102.682 E0.01322
G1 X109.984 Y98.047 E0.11837
G1 X110.501 Y98.047 E0.01322
G1 X110.501 Y102.682 E0.11837
G1 X111.019 Y102.682 E0.01322
G1 X111.019 Y102.434 E0.00634
G1 X110.856 Y102.434 E0.00417
G1 X110.631 Y102.211 E0.00808
G1 X110.628 Y101.804 E0.01039
G1 X110.653 Y99.888 E0.04893
G1 X110.877 Y99.666 E0.00805
G1 X111.019 Y99.666 E0.00363
G1 X111.019 Y98.047 E0.04135
G1 X111.093 Y98.047 E0.00189
G1 X111.093 Y93.411 E0.11837
G1 X111.537 Y93.411 E0.01133
G1 X111.537 Y99.666 E0.15972
G1 X112.055 Y99.666 E0.01322
G1 X112.055 Y93.411 E0.15972
G1 X112.573 Y93.411 E0.01322
G1 X112.573 Y94.279 E0.02216
G1 X112.739 Y94.112 E0.00602
G1 X113.090 Y94.112 E0.00897
G1 X113.090 Y93.411 E0.01791
G1 X113.608 Y93.411 E0.01322
G1 X113.608 Y94.112 E0.01791
G1 X114.126 Y94.112 E0.01322
G1 X114.126 Y93.411 E0.01791
G1 X114.644 Y93.411 E0.01322
G1 X114.644 Y94.119 E0.01807
G1 X114.967 Y94.442 E0.01168
G1 X114.967 Y99.666 E0.13339
G1 X115.162 Y99.666 E0.00496
G1 X115.162 Y93.411 E0.15972
G1 X115.679 Y93.411 E0.01322
G1 X115.679 Y99.809 E0.16337
G1 F8640.000
G1 X115.679 Y94.049 E-1.33000
G1 E-0.07000 F2100.00000
G1 Z0.400 F10800.000
G1 X114.442 Y99.806
G1 Z0.200
G1 E1.40000 F2100.00000
G1 F1200.000
G1 X114.442 Y94.460 E0.16763
G1 X113.688 Y94.460 E0.02365
G1 X113.688 Y99.636 E0.16231
G1 X112.933 Y99.636 E0.02365
G1 X112.933 Y94.290 E0.16763
G1 F8640.000
G1 X112.933 Y99.636 E-1.23450
G1 X113.347 Y99.636 E-0.09550
G1 E-0.07000 F2100.00000
G1 Z0.400 F10800.000
G1 X122.738 Y98.869
G1 Z0.200
G1 E1.40000 F2100.00000
G1 F1200.000
G1 X122.738 Y90.441 E0.26426
G1 X121.983 Y90.441 E0.02365
G1 X121.983 Y98.699 E0.25894
G1 X121.229 Y98.699 E0.02365
G1 X121.229 Y90.441 E0.25894
G1 X120.475 Y90.441 E0.02365
G1 X120.475 Y99.636 E0.28833
G1 X119.721 Y99.636 E0.02365
G1 X119.721 Y90.441 E0.28833
G1 X118.967 Y90.441 E0.02365
G1 X118.967 Y99.636 E0.28833
G1 X118.213 Y99.636 E0.02365
G1 X118.213 Y90.441 E0.28833
G1 X117.458 Y90.441 E0.02365
G1 X117.458 Y99.636 E0.28833
G1 X116.704 Y99.636 E0.02365
G1 X116.704 Y90.441 E0.28833
G1 X115.950 Y90.441 E0.02365
G1 X115.950 Y93.063 E0.08224
G1 X115.196 Y93.063 E0.02365
G1 X115.196 Y90.441 E0.08224
G1 X114.442 Y90.441 E0.02365
G1 X114.442 Y93.063 E0.08224
G1 X113.688 Y93.063 E0.02365
G1 X113.688 Y90.441 E0.08223
G1 X112.933 Y90.441 E0.02365
G1 X112.933 Y93.063 E0.08223
G1 X112.179 Y93.063 E0.02365
G1 X112.179 Y90.441 E0.08223
G1 X111.425 Y90.441 E0.02365
G1 X111.425 Y93.063 E0.08223
G1 X110.746 Y93.063 E0.02131
G1 X110.746 Y97.699 E0.14535
G1 X110.671 Y97.699 E0.00234
G1 X110.671 Y90.441 E0.22758
G1 X109.917 Y90.441 E0.02365
G1 X109.917 Y97.699 E0.22758
G1 X109.163 Y97.699 E0.02365
G1 X109.163 Y90.441 E0.22758
G1 X108.409 Y90.441 E0.02365
G1 X108.409 Y105.652 E0.47696
G1 X109.163 Y105.652 E0.02365
G1 X109.163 Y103.030 E0.08224
G1 X109.917 Y103.030 E0.02365
G1 X109.917 Y105.652 E0.08224
G1 X110.671 Y105.652 E0.02365
G1 X110.671 Y103.030 E0.08223
G1 X111.425 Y103.030 E0.02365
G1 X111.425 Y105.652 E0.08223
G1 X112.179 Y105.652 E0.02365
G1 X112.179 Y102.464 E0.09999
G1 X112.933 Y102.464 E0.02365
G1 X112.933 Y105.652 E0.09999
G1 X113.688 Y105.652 E0.02365
G1 X113.688 Y102.464 E0.09999
G1 X114.442 Y102.464 E0.02365
G1 X114.442 Y102.636 E0.00542
G1 X115.196 Y102.636 E0.02365
G1 X115.196 Y102.464 E0.00542
G1 X115.950 Y102.464 E0.02365
G1 X115.950 Y102.636 E0.00542
G1 X116.704 Y102.636 E0.02365
G1 X116.704 Y102.464 E0.00542
G1 X117.458 Y102.464 E0.02365
G1 X117.458 Y102.636 E0.00542
G1 X118.213 Y102.636 E0.02365
G1 X118.213 Y102.464 E0.00542
G1 X118.967 Y102.464 E0.02365
G1 X118.967 Y102.636 E0.00542
G1 X119.721 Y102.636 E0.02365
G1 X119.721 Y102.464 E0.00542
G1 X120.475 Y102.464 E0.02365
G1 X120.475 Y102.806 E0.01074
G1 F8640.000
G1 X120.475 Y102.464 E-0.07909
G1 X119.721 Y102.464 E-0.17414
G1 X119.721 Y102.636 E-0.03991
G1 X118.967 Y102.636 E-0.17414
G1 X118.967 Y102.464 E-0.03991
G1 X118.213 Y102.464 E-0.17414
G1 X118.213 Y102.636 E-0.03991
G1 X117.458 Y102.636 E-0.17414
G1 X117.458 Y102.464 E-0.03991
G1 X116.704 Y102.464 E-0.17414
G1 X116.704 Y102.636 E-0.03991
G1 X115.950 Y102.636 E-0.17414
G1 X115.950 Y102.608 E-0.00656
G1 E-0.07000 F2100.00000
G1 Z0.400 F10800.000
G1 X113.688 Y119.729
G1 Z0.200
G1 E1.40000 F2100.00000
G1 F1200.000
G1 X113.688 Y115.964 E0.11806
G1 X112.933 Y115.964 E0.02365
G1 X112.933 Y119.559 E0.11274
G1 X112.179 Y119.559 E0.02365
G1 X112.179 Y115.964 E0.11274
G1 X111.496 Y115.964 E0.02143
G1 X111.441 Y115.908 E0.00244
G1 X111.425 Y119.559 E0.11447
G1 X110.671 Y119.559 E0.02365
G1 X110.671 Y116.937 E0.08224
G1 X109.917 Y116.937 E0.02365
G1 X109.917 Y119.559 E0.08224
G1 X109.163 Y119.559 E0.02365
G1 X109.163 Y116.937 E0.08223
G1 X108.428 Y116.937 E0.02304
G1 X108.428 Y111.606 E0.16714
G1 X109.163 Y111.606 E0.02304
G1 X109.163 Y108.983 E0.08224
G1 X109.917 Y108.983 E0.02365
G1 X109.917 Y111.606 E0.08224
G1 X110.671 Y111.606 E0.02365
G1 X110.671 Y108.983 E0.08223
G1 X111.425 Y108.983 E0.02365
G1 X111.441 Y113.192 E0.13195
G1 X111.496 Y113.136 E0.00244
G1 X112.179 Y113.136 E0.02143
G1 X112.179 Y108.983 E0.13023
G1 X112.933 Y108.983 E0.02365
G1 X112.933 Y113.136 E0.13023
G1 X113.688 Y113.136 E0.02365
G1 X113.688 Y108.813 E0.13555
G1 F8640.000
G1 X113.688 Y113.136 E-0.99820
G1 X112.933 Y113.136 E-0.17414
G1 X112.933 Y112.454 E-0.15766
G1 E-0.07000 F2100.00000
G1 Z0.400 F10800.000
G1 X108.948 Y111.810
G1 Z0.200
G1 E1.40000 F2100.00000
G1 F1200.000
G1 X108.948 Y116.589 E0.12202
G1 X109.466 Y116.589 E0.01322
G1 X109.466 Y111.953 E0.11837
G1 X109.984 Y111.953 E0.01322
G1 X109.984 Y116.589 E0.11837
G1 X110.501 Y116.589 E0.01322
G1 X110.501 Y111.953 E0.11837
G1 X111.019 Y111.953 E0.01322
G1 X111.019 Y113.166 E0.03097
G1 X110.855 Y113.166 E0.00419
G1 X110.630 Y113.391 E0.00812
G1 X110.630 Y115.709 E0.05919
G1 X110.855 Y115.934 E0.00812
G1 X111.019 Y115.934 E0.00419
G1 X111.019 Y116.732 E0.02038
G1 F8640.000
G1 X111.019 Y115.934 E-0.18430
G1 X110.855 Y115.934 E-0.03792
G1 X110.630 Y115.709 E-0.07343
G1 X110.630 Y113.391 E-0.53524
G1 X110.855 Y113.166 E-0.07343
G1 X111.019 Y113.166 E-0.03792
G1 X111.019 Y111.953 E-0.28002
G1 X110.553 Y111.953 E-0.10773
G1 E-0.07000 F2100.00000
G1 Z0.400 F10800.000
G1 X108.409 Y119.729
G1 Z0.200
G1 E1.40000 F2100.00000
G1 F1200.000
G1 X108.409 Y108.983 E0.33693
G1 X107.654 Y108.983 E0.02365
G1 X107.654 Y119.559 E0.33161
G1 X106.900 Y119.559 E0.02365
G1 X106.900 Y108.983 E0.33161
G1 X106.146 Y108.983 E0.02365
G1 X106.146 Y119.729 E0.33693
G1 F8640.000
G1 X106.146 Y113.969 E-1.33000
G1 E-0.07000 F2100.00000
G1 Z0.400 F10800.000
G1 X112.454 Y114.763
G1 Z0.200
G1 E1.40000 F2100.00000
G1 F1200.000
G1 X112.454 Y114.337 E0.01335
G1 X134.659 Y114.337 E0.69623
G1 X135.761 Y114.241 E0.03466
G1 X136.862 Y113.946 E0.03574
G1 X137.895 Y113.464 E0.03574
G1 X138.829 Y112.810 E0.03574
G1 X139.635 Y112.004 E0.03574
G1 X140.289 Y111.070 E0.03574
G1 X140.771 Y110.037 E0.03574
G1 X141.066 Y108.936 E0.03574
G1 X141.165 Y107.800 E0.03574
G1 X141.066 Y106.664 E0.03574
G1 X140.771 Y105.563 E0.03574
G1 X140.289 Y104.530 E0.03574
G1 X139.635 Y103.596 E0.03574
G1 X138.829 Y102.790 E0.03574
G1 X137.895 Y102.136 E0.03574
G1 X136.862 Y101.654 E0.03574
G1 X135.761 Y101.359 E0.03574
G1 X134.659 Y101.263 E0.03466
G1 X112.449 Y101.263 E0.69639
G1 X112.446 Y100.837 E0.01335
G1 X134.594 Y100.837 E0.69444
G1 X135.714 Y100.925 E0.03521
G1 X136.776 Y101.180 E0.03425
G1 X137.785 Y101.598 E0.03425
G1 X138.716 Y102.169 E0.03425
G1 X139.547 Y102.878 E0.03425
G1 X140.256 Y103.709 E0.03425
G1 X140.827 Y104.640 E0.03425
G1 X141.245 Y105.649 E0.03425
G1 X141.500 Y106.711 E0.03425
G1 X141.585 Y107.800 E0.03425
G1 X141.500 Y108.889 E0.03425
G1 X141.245 Y109.951 E0.03425
G1 X140.827 Y110.960 E0.03425
G1 X140.256 Y111.891 E0.03425
G1 X139.547 Y112.722 E0.03425
G1 X138.716 Y113.431 E0.03425
G1 X137.785 Y114.002 E0.03425
G1 X136.776 Y114.420 E0.03425
G1 X135.714 Y114.675 E0.03425
G1 X134.594 Y114.763 E0.03522
G1 X112.514 Y114.763 E0.69230
G1 X112.077 Y115.140 F10800.000
G1 F1200.000
G1 X112.077 Y113.960 E0.03700
G1 X134.643 Y113.960 E0.70754
G1 X135.695 Y113.868 E0.03311
G1 X136.732 Y113.590 E0.03368
G1 X137.706 Y113.136 E0.03368
G1 X138.586 Y112.520 E0.03368
G1 X139.345 Y111.761 E0.03368
G1 X139.961 Y110.881 E0.03368
G1 X140.415 Y109.907 E0.03368
G1 X140.693 Y108.870 E0.03368
G1 X140.787 Y107.800 E0.03368
G1 X140.693 Y106.730 E0.03368
G1 X140.415 Y105.693 E0.03368
G1 X139.961 Y104.719 E0.03368
G1 X139.345 Y103.839 E0.03368
G1 X138.586 Y103.080 E0.03368
G1 X137.706 Y102.464 E0.03368
G1 X136.732 Y102.010 E0.03368
G1 X135.695 Y101.732 E0.03368
G1 X134.643 Y101.640 E0.03311
G1 X112.074 Y101.640 E0.70762
G1 X112.066 Y100.460 E0.03700
G1 X134.609 Y100.460 E0.70681
G1 X135.773 Y100.552 E0.03661
G1 X136.893 Y100.820 E0.03611
G1 X137.957 Y101.261 E0.03611
G1 X138.939 Y101.863 E0.03611
G1 X139.814 Y102.611 E0.03611
G1 X140.562 Y103.486 E0.03611
G1 X141.164 Y104.468 E0.03611
G1 X141.605 Y105.532 E0.03611
G1 X141.873 Y106.652 E0.03611
G1 X141.964 Y107.800 E0.03611
G1 X141.873 Y108.948 E0.03611
G1 X141.605 Y110.068 E0.03611
G1 X141.164 Y111.132 E0.03611
G1 X140.562 Y112.114 E0.03611
G1 X139.814 Y112.989 E0.03611
G1 X138.939 Y113.737 E0.03611
G1 X137.957 Y114.339 E0.03611
G1 X136.893 Y114.780 E0.03611
G1 X135.773 Y115.048 E0.03611
G1 X134.609 Y115.140 E0.03661
G1 X112.137 Y115.140 E0.70459
G1 X112.277 Y114.793 F10800.000
G1 F8640.000
G1 X112.077 Y113.960 E-0.27282
G1 X116.656 Y113.960 E-1.05718
G1 E-0.07000 F2100.00000
G1 Z0.400 F10800.000
G1 X135.573 Y114.472
G1 Z0.200
G1 E1.40000 F2100.00000
G1 F1200.000
G1 X135.710 Y114.458 E0.00058
G1 X136.392 Y114.293 F10800.000
G1 F1200.000
G1 X136.789 Y114.185 E0.00200
G1 X137.388 Y113.935 F10800.000
G1 F1200.000
G1 X137.808 Y113.739 E0.00244
G1 X138.344 Y113.409 F10800.000
G1 F1200.000
G1 X138.738 Y113.133 E0.00266
G1 X139.211 Y112.729 F10800.000
G1 F1200.000
G1 X139.554 Y112.385 E0.00273
G1 X139.958 Y111.913 F10800.000
G1 F1200.000
G1 X140.234 Y111.519 E0.00266
G1 X140.564 Y110.983 F10800.000
G1 F1200.000
G1 X140.760 Y110.563 E0.00244
G1 X141.010 Y109.964 F10800.000
G1 F1200.000
G1 X141.118 Y109.567 E0.00200
G1 X141.283 Y108.885 F10800.000
G1 F1200.000
G1 X141.297 Y108.748 E0.00058
G1 F8640.000
G1 X141.283 Y108.885 E-0.03173
G1 E-1.36827 F2100.00000
G1 Z0.400 F10800.000
G1 X141.297 Y106.852
G1 Z0.200
G1 E1.40000 F2100.00000
G1 F1200.000
G1 X141.283 Y106.715 E0.00058
G1 X141.118 Y106.033 F10800.000
G1 F1200.000
G1 X141.010 Y105.636 E0.00200
G1 X140.760 Y105.037 F10800.000
G1 F1200.000
G1 X140.564 Y104.617 E0.00244
G1 X140.234 Y104.081 F10800.000
G1 F1200.000
G1 X139.958 Y103.687 E0.00266
G1 X139.554 Y103.214 F10800.000
G1 F1200.000
G1 X139.211 Y102.871 E0.00273
G1 X138.738 Y102.467 F10800.000
G1 F1200.000
G1 X138.344 Y102.191 E0.00266
G1 X137.808 Y101.861 F10800.000
G1 F1200.000
G1 X137.388 Y101.665 E0.00244
G1 X136.789 Y101.415 F10800.000
G1 F1200.000
G1 X136.392 Y101.307 E0.00200
G1 X135.710 Y101.142 F10800.000
G1 F1200.000
G1 X135.573 Y101.128 E0.00058
; stop printing object antenna_top.stl id:0 copy 0
;BEFORE_LAYER_CHANGE
G92 E0.0
;0.342229


G1 F8640.000
G1 X135.710 Y101.142 E-0.03168
G1 E-1.36832 F2100.00000
G1 Z0.400 F10800.000
;AFTER_LAYER_CHANGE
;0.342229
M104 S240 ; set temperature
M140 S90 ; set bed temperature
; printing object antenna_top.stl id:0 copy 0
G1 X120.507 Y95.729
G1 Z0.342
G1 E1.40000 F2100.00000
G1 F900
G1 X118.364 Y95.729 E0.04048
G1 X118.364 Y93.411 E0.04379
G1 X120.507 Y93.411 E0.04048
G1 F8640.000
G1 X118.364 Y93.411 E-0.49483
G1 X118.364 Y95.729 E-0.53519
G1 X119.664 Y95.729 E-0.29998
G1 E-0.07000 F2100.00000
G1 Z0.542 F10800.000
G1 X117.751 Y99.809
G1 Z0.342
G1 E1.40000 F2100.00000
G1 F900
G1 X117.751 Y93.411 E0.12087
G1 X117.233 Y93.411 E0.00978
G1 X117.233 Y99.666 E0.11817
G1 X116.715 Y99.666 E0.00978
G1 X116.715 Y93.411 E0.11817
G1 X116.197 Y93.411 E0.00978
G1 X116.197 Y99.666 E0.11817
G1 X115.679 Y99.666 E0.00978
G1 X115.679 Y93.411 E0.11817
G1 X115.162 Y93.411 E0.00978
G1 X115.162 Y99.666 E0.11817
G1 X114.967 Y99.666 E0.00367
G1 X114.967 Y94.442 E0.09869
G1 X114.644 Y94.119 E0.00864
G1 X114.644 Y93.411 E0.01337
G1 X114.126 Y93.411 E0.00978
M73 Q3 S31
G1 X114.126 Y94.112 E0.01325
G1 X113.608 Y94.112 E0.00978
G1 X113.608 Y93.411 E0.01325
G1 X113.090 Y93.411 E0.00978
G1 X113.090 Y94.112 E0.01325
G1 X112.739 Y94.112 E0.00663
G1 X112.573 Y94.279 E0.00445
G1 X112.573 Y93.411 E0.01640
G1 X112.055 Y93.411 E0.00978
G1 X112.055 Y99.666 E0.11817
M73 P3 R31
G1 X111.537 Y99.666 E0.00978
