; generated by PrusaSlicer 2.2.0+win64 on 2020-11-02 at 11:11:15 UTC

; 

; external perimeters extrusion width = 0.45mm
; perimeters extrusion width = 0.45mm
; infill extrusion width = 0.45mm
; solid infill extrusion width = 0.45mm
; top infill extrusion width = 0.40mm
; first layer extrusion width = 0.42mm

M73 P0 R137
M73 Q0 S137
M201 X1000 Y1000 Z200 E5000 ; sets maximum accelerations, mm/sec^2
M203 X200 Y200 Z12 E120 ; sets maximum feedrates, mm/sec
M204 P1250 R1250 T1250 ; sets acceleration (P, T) and retract acceleration (R), mm/sec^2
M205 X8.00 Y8.00 Z0.40 E4.50 ; sets the jerk limits, mm/sec
M205 S0 T0 ; sets the minimum extruding and travel feed rate, mm/sec
M107
M862.3 P "MK3S" ; printer model check
M862.1 P0.4 ; nozzle diameter check
M115 U3.9.1 ; tell printer latest fw version
G90 ; use absolute coordinates
M83 ; extruder relative mode
M104 S215 ; set extruder temp
M140 S60 ; set bed temp
M190 S60 ; wait for bed temp
M109 S215 ; wait for extruder temp
G28 W ; home all without mesh bed level
G80 ; mesh bed leveling
G1 Y-3.0 F1000.0 ; go outside print area
G92 E0.0
G1 X60.0 E9.0 F1000.0 ; intro line
M73 Q0 S137
M73 P0 R137
G1 X100.0 E12.5 F1000.0 ; intro line
G92 E0.0
M221 S100

; Don't change E values below. Excessive value can damage the printer.
M907 E430 ; set extruder motor current
G21 ; set units to millimeters
G90 ; use absolute coordinates
M83 ; use relative distances for extrusion
M900 K0.05 ; Filament gcode LA 1.5
M900 K30 ; Filament gcode LA 1.0
;BEFORE_LAYER_CHANGE
G92 E0.0
;0.2


G1 E-0.80000 F2100.00000
G1 Z0.600 F10800.000
;AFTER_LAYER_CHANGE
;0.2
G1 X86.737 Y82.774
G1 Z0.200
G1 E0.80000 F2100.00000
M204 S500
G1 F1200.000
G1 X87.981 Y82.623 E0.03929
G1 X162.004 Y82.623 E2.32094
G1 X163.442 Y82.828 E0.04554
G1 X164.367 Y83.172 E0.03096
G1 X165.313 Y83.765 E0.03502
G1 X166.327 Y84.817 E0.04579
G1 X166.843 Y85.663 E0.03109
G1 X167.180 Y86.580 E0.03061
G1 X167.377 Y87.977 E0.04425
G1 X167.377 Y97.513 E0.29901
G1 X167.286 Y98.469 E0.03009
G1 X166.959 Y99.567 E0.03594
G1 X157.044 Y125.069 E0.85788
G1 X156.430 Y126.036 E0.03593
G1 X155.935 Y126.517 E0.02163
G1 X155.406 Y126.870 E0.01996
G1 X154.451 Y127.258 E0.03230
G1 X153.519 Y127.377 E0.02947
G1 X96.443 Y127.376 E1.78958
G1 X95.556 Y127.260 E0.02805
G1 X94.633 Y126.894 E0.03112
G1 X93.892 Y126.362 E0.02861
G1 X93.469 Y125.917 E0.01924
G1 X93.130 Y125.406 E0.01924
G1 X83.042 Y99.572 E0.86955
G1 X82.727 Y98.546 E0.03365
G1 X82.623 Y97.518 E0.03239
G1 X82.623 Y88.000 E0.29845
G1 X82.735 Y86.915 E0.03418
G1 X83.138 Y85.705 E0.04000
G1 X83.747 Y84.711 E0.03656
G1 X84.594 Y83.839 E0.03810
G1 X85.443 Y83.278 E0.03191
G1 X86.681 Y82.796 E0.04165
M204 S1000
G1 F8640.000
G1 X87.981 Y82.623 E-0.30281
G1 X89.961 Y82.623 E-0.45719
G1 E-0.04000 F2100.00000
G1 Z0.800 F10800.000
G1 X120.409 Y102.621
G1 Z0.200
G1 E0.80000 F2100.00000
M204 S500
G1 F1200.000
G1 X121.133 Y101.566 E0.04013
G1 X122.048 Y100.754 E0.03835
G1 X123.151 Y100.170 E0.03914
G1 X124.419 Y99.864 E0.04090
G1 X125.602 Y99.864 E0.03709
G1 X126.809 Y100.156 E0.03896
G1 X127.914 Y100.728 E0.03902
G1 X128.853 Y101.551 E0.03913
G1 X129.594 Y102.628 E0.04101
G1 X130.012 Y103.731 E0.03697
G1 X130.171 Y104.966 E0.03903
G1 X130.013 Y106.269 E0.04116
G1 X129.563 Y107.432 E0.03910
G1 X128.862 Y108.440 E0.03850
G1 X127.896 Y109.280 E0.04013
G1 X126.851 Y109.828 E0.03701
G1 X125.645 Y110.131 E0.03898
G1 X124.401 Y110.136 E0.03903
G1 X123.187 Y109.843 E0.03916
G1 X122.032 Y109.232 E0.04096
G1 X121.146 Y108.447 E0.03710
G1 X120.408 Y107.378 E0.04074
G1 X119.975 Y106.222 E0.03871
G1 X119.833 Y105.054 E0.03689
G1 X119.991 Y103.724 E0.04199
G1 X120.388 Y102.678 E0.03509
M204 S1000
G1 X120.740 Y102.811 F10800.000
M204 S500
G1 F1200.000
G1 X121.418 Y101.817 E0.03772
G1 X122.264 Y101.066 E0.03548
G1 X123.285 Y100.525 E0.03624
G1 X124.464 Y100.241 E0.03800
G1 X125.557 Y100.241 E0.03427
G1 X126.676 Y100.511 E0.03612
G1 X127.700 Y101.042 E0.03615
G1 X128.569 Y101.803 E0.03621
G1 X129.257 Y102.805 E0.03811
G1 X129.644 Y103.823 E0.03415
G1 X129.791 Y104.967 E0.03616
G1 X129.644 Y106.176 E0.03820
G1 X129.227 Y107.253 E0.03621
G1 X128.579 Y108.186 E0.03561
G1 X127.682 Y108.966 E0.03728
G1 X126.716 Y109.474 E0.03421
G1 X125.598 Y109.754 E0.03614
G1 X124.445 Y109.759 E0.03617
G1 X123.321 Y109.488 E0.03624
G1 X122.248 Y108.920 E0.03806
G1 X121.431 Y108.196 E0.03425
G1 X120.745 Y107.202 E0.03784
G1 X120.344 Y106.132 E0.03584
G1 X120.213 Y105.053 E0.03406
G1 X120.360 Y103.814 E0.03912
G1 X120.719 Y102.867 E0.03176
M204 S1000
G1 X121.072 Y103.001 F10800.000
M204 S500
G1 F1200.000
G1 X121.702 Y102.068 E0.03530
G1 X122.480 Y101.378 E0.03261
G1 X123.420 Y100.881 E0.03333
G1 X124.508 Y100.618 E0.03511
G1 X125.512 Y100.618 E0.03146
G1 X126.543 Y100.867 E0.03328
G1 X127.486 Y101.356 E0.03328
G1 X128.285 Y102.056 E0.03330
G1 X128.921 Y102.981 E0.03520
G1 X129.275 Y103.915 E0.03133
G1 X129.411 Y104.968 E0.03329
G1 X129.275 Y106.084 E0.03525
G1 X128.892 Y107.075 E0.03331
G1 X128.296 Y107.933 E0.03273
G1 X127.468 Y108.653 E0.03443
G1 X126.581 Y109.119 E0.03142
G1 X125.551 Y109.377 E0.03329
G1 X124.489 Y109.382 E0.03330
G1 X123.456 Y109.132 E0.03332
G1 X122.464 Y108.608 E0.03516
G1 X121.715 Y107.944 E0.03139
G1 X121.082 Y107.026 E0.03495
G1 X120.713 Y106.042 E0.03297
G1 X120.593 Y105.053 E0.03123
G1 X120.729 Y103.905 E0.03625
G1 X121.050 Y103.057 E0.02843
M204 S1000
G1 X120.854 Y102.665 F10800.000
G1 F8640.000
G1 X121.702 Y102.068 E-0.27348
G1 X122.480 Y101.378 E-0.24017
G1 X123.420 Y100.881 E-0.24546
G1 X123.424 Y100.880 E-0.00089
G1 E-0.04000 F2100.00000
G1 Z0.800 F10800.000
G1 X116.438 Y104.315
G1 Z0.200
G1 E0.80000 F2100.00000
M204 S500
G1 F1200.000
G1 X116.558 Y104.800 E0.01567
G1 X116.558 Y105.300 E0.01567
G1 X116.438 Y105.785 E0.01567
G1 X116.200 Y106.238 E0.01606
G1 X115.838 Y106.626 E0.01663
G1 X115.463 Y106.885 E0.01429
G1 X114.996 Y107.062 E0.01567
G1 X114.500 Y107.123 E0.01567
G1 X113.992 Y107.061 E0.01606
G1 X113.501 Y106.860 E0.01663
G1 X113.126 Y106.601 E0.01429
G1 X112.794 Y106.227 E0.01567
G1 X112.562 Y105.785 E0.01567
G1 X112.442 Y105.300 E0.01567
G1 X112.442 Y104.800 E0.01567
G1 X112.562 Y104.315 E0.01567
G1 X112.794 Y103.872 E0.01567
G1 X113.126 Y103.498 E0.01567
G1 X113.547 Y103.207 E0.01606
G1 X114.048 Y103.032 E0.01663
G1 X114.500 Y102.977 E0.01429
G1 X114.996 Y103.037 E0.01567
G1 X115.463 Y103.215 E0.01567
G1 X115.874 Y103.498 E0.01567
G1 X116.206 Y103.872 E0.01567
G1 X116.410 Y104.262 E0.01379
M204 S1000
G1 X116.076 Y104.437 F10800.000
M204 S500
G1 F1200.000
G1 X116.181 Y104.846 E0.01323
G1 X116.181 Y105.254 E0.01280
G1 X116.083 Y105.650 E0.01280
G1 X115.890 Y106.018 E0.01303
G1 X115.590 Y106.339 E0.01376
G1 X115.287 Y106.549 E0.01157
G1 X114.905 Y106.694 E0.01280
G1 X114.500 Y106.743 E0.01280
G1 X114.087 Y106.693 E0.01303
G1 X113.681 Y106.527 E0.01376
G1 X113.377 Y106.317 E0.01157
G1 X113.107 Y106.011 E0.01280
G1 X112.917 Y105.650 E0.01280
G1 X112.819 Y105.254 E0.01280
G1 X112.819 Y104.846 E0.01280
G1 X112.917 Y104.450 E0.01280
G1 X113.107 Y104.088 E0.01280
G1 X113.377 Y103.783 E0.01280
G1 X113.720 Y103.547 E0.01303
G1 X114.134 Y103.401 E0.01376
G1 X114.500 Y103.357 E0.01157
G1 X114.905 Y103.406 E0.01280
G1 X115.287 Y103.551 E0.01280
G1 X115.623 Y103.783 E0.01280
G1 X115.893 Y104.088 E0.01280
G1 X116.048 Y104.384 E0.01047
M204 S1000
G1 X115.728 Y104.584 F10800.000
M204 S500
G1 F1200.000
G1 X115.803 Y104.892 E0.00992
G1 X115.803 Y105.208 E0.00992
G1 X115.728 Y105.515 E0.00992
G1 X115.579 Y105.798 E0.01001
G1 X115.343 Y106.052 E0.01089
G1 X115.110 Y106.212 E0.00885
G1 X114.814 Y106.325 E0.00992
G1 X114.500 Y106.363 E0.00992
G1 X114.183 Y106.324 E0.01001
G1 X113.862 Y106.193 E0.01089
G1 X113.629 Y106.033 E0.00885
G1 X113.419 Y105.796 E0.00992
G1 X113.272 Y105.515 E0.00992
G1 X113.197 Y105.208 E0.00992
G1 X113.197 Y104.892 E0.00992
G1 X113.272 Y104.584 E0.00992
G1 X113.419 Y104.304 E0.00992
G1 X113.629 Y104.067 E0.00992
G1 X113.892 Y103.886 E0.01001
G1 X114.220 Y103.771 E0.01089
G1 X114.500 Y103.737 E0.00885
G1 X114.814 Y103.775 E0.00992
G1 X115.110 Y103.887 E0.00992
G1 X115.371 Y104.067 E0.00992
G1 X115.581 Y104.304 E0.00992
G1 X115.700 Y104.531 E0.00804
M204 S1000
G1 X116.040 Y104.635 F10800.000
G1 F8640.000
G1 X115.803 Y104.892 E-0.08660
G1 X115.803 Y105.208 E-0.07309
G1 X115.728 Y105.515 E-0.07309
G1 X115.579 Y105.798 E-0.07372
G1 X115.343 Y106.052 E-0.08018
G1 X115.110 Y106.212 E-0.06519
G1 X114.814 Y106.325 E-0.07309
G1 X114.500 Y106.363 E-0.07309
G1 X114.183 Y106.324 E-0.07372
G1 X113.862 Y106.193 E-0.08018
G1 X113.833 Y106.173 E-0.00807
G1 E-0.04000 F2100.00000
G1 Z0.800 F10800.000
G1 X114.500 Y94.573
G1 Z0.200
G1 E0.80000 F2100.00000
M204 S500
G1 F1200.000
G1 X114.004 Y94.512 E0.01567
G1 X113.537 Y94.335 E0.01567
G1 X113.126 Y94.051 E0.01567
G1 X112.794 Y93.677 E0.01567
G1 X112.562 Y93.235 E0.01567
G1 X112.442 Y92.750 E0.01567
G1 X112.442 Y92.250 E0.01567
G1 X112.562 Y91.765 E0.01567
G1 X112.794 Y91.322 E0.01567
G1 X113.126 Y90.948 E0.01567
G1 X113.547 Y90.657 E0.01606
G1 X114.048 Y90.482 E0.01663
G1 X114.500 Y90.427 E0.01429
G1 X114.996 Y90.487 E0.01567
G1 X115.463 Y90.665 E0.01567
G1 X115.874 Y90.948 E0.01567
G1 X116.206 Y91.322 E0.01567
G1 X116.438 Y91.765 E0.01567
G1 X116.558 Y92.250 E0.01567
G1 X116.558 Y92.750 E0.01567
G1 X116.438 Y93.235 E0.01567
G1 X116.206 Y93.677 E0.01567
G1 X115.874 Y94.051 E0.01567
G1 X115.463 Y94.335 E0.01567
G1 X114.996 Y94.512 E0.01567
G1 X114.560 Y94.565 E0.01379
M204 S1000
G1 X114.514 Y94.191 F10800.000
M204 S500
G1 F1200.000
G1 X114.095 Y94.144 E0.01323
G1 X113.713 Y93.999 E0.01280
G1 X113.377 Y93.767 E0.01280
G1 X113.107 Y93.461 E0.01280
G1 X112.917 Y93.100 E0.01280
G1 X112.819 Y92.704 E0.01280
G1 X112.819 Y92.296 E0.01280
G1 X112.917 Y91.900 E0.01280
G1 X113.107 Y91.538 E0.01280
G1 X113.377 Y91.233 E0.01280
G1 X113.720 Y90.997 E0.01303
G1 X114.134 Y90.851 E0.01376
G1 X114.500 Y90.807 E0.01157
G1 X114.905 Y90.856 E0.01280
G1 X115.287 Y91.001 E0.01280
G1 X115.623 Y91.233 E0.01280
G1 X115.893 Y91.538 E0.01280
G1 X116.083 Y91.900 E0.01280
G1 X116.181 Y92.296 E0.01280
G1 X116.181 Y92.704 E0.01280
G1 X116.083 Y93.100 E0.01280
G1 X115.893 Y93.461 E0.01280
G1 X115.623 Y93.767 E0.01280
G1 X115.287 Y93.999 E0.01280
G1 X114.905 Y94.144 E0.01280
G1 X114.574 Y94.184 E0.01047
M204 S1000
G1 X114.500 Y93.813 F10800.000
M204 S500
G1 F1200.000
G1 X114.186 Y93.775 E0.00992
G1 X113.890 Y93.662 E0.00992
G1 X113.629 Y93.483 E0.00992
G1 X113.419 Y93.246 E0.00992
G1 X113.272 Y92.965 E0.00992
G1 X113.197 Y92.658 E0.00992
G1 X113.197 Y92.342 E0.00992
G1 X113.272 Y92.034 E0.00992
G1 X113.419 Y91.754 E0.00992
G1 X113.629 Y91.517 E0.00992
G1 X113.892 Y91.336 E0.01001
G1 X114.220 Y91.221 E0.01089
G1 X114.500 Y91.187 E0.00885
G1 X114.814 Y91.225 E0.00992
G1 X115.110 Y91.337 E0.00992
G1 X115.371 Y91.517 E0.00992
G1 X115.581 Y91.754 E0.00992
G1 X115.728 Y92.034 E0.00992
G1 X115.803 Y92.342 E0.00992
G1 X115.803 Y92.658 E0.00992
G1 X115.728 Y92.965 E0.00992
G1 X115.581 Y93.246 E0.00992
G1 X115.371 Y93.483 E0.00992
G1 X115.110 Y93.662 E0.00992
G1 X114.814 Y93.775 E0.00992
G1 X114.560 Y93.806 E0.00804
M204 S1000
G1 X114.342 Y94.087 F10800.000
G1 F8640.000
G1 X114.186 Y93.775 E-0.08660
G1 X113.890 Y93.662 E-0.07309
G1 X113.629 Y93.483 E-0.07309
G1 X113.419 Y93.246 E-0.07309
G1 X113.272 Y92.965 E-0.07309
G1 X113.197 Y92.658 E-0.07309
G1 X113.197 Y92.342 E-0.07309
G1 X113.272 Y92.034 E-0.07309
G1 X113.419 Y91.754 E-0.07309
G1 X113.629 Y91.517 E-0.07309
G1 X113.685 Y91.479 E-0.01560
G1 E-0.04000 F2100.00000
G1 Z0.800 F10800.000
G1 X133.442 Y92.750
G1 Z0.200
G1 E0.80000 F2100.00000
M204 S500
G1 F1200.000
G1 X133.442 Y92.250 E0.01567
G1 X133.562 Y91.765 E0.01567
G1 X133.794 Y91.322 E0.01567
G1 X134.126 Y90.948 E0.01567
G1 X134.547 Y90.657 E0.01606
G1 X135.048 Y90.482 E0.01663
G1 X135.500 Y90.427 E0.01429
G1 X135.996 Y90.487 E0.01567
G1 X136.463 Y90.665 E0.01567
G1 X136.874 Y90.948 E0.01567
G1 X137.206 Y91.322 E0.01567
G1 X137.438 Y91.765 E0.01567
G1 X137.558 Y92.250 E0.01567
G1 X137.558 Y92.750 E0.01567
G1 X137.438 Y93.235 E0.01567
G1 X137.206 Y93.677 E0.01567
G1 X136.874 Y94.051 E0.01567
G1 X136.463 Y94.335 E0.01567
G1 X135.996 Y94.512 E0.01567
G1 X135.500 Y94.573 E0.01567
G1 X134.992 Y94.511 E0.01606
G1 X134.501 Y94.310 E0.01663
G1 X134.126 Y94.051 E0.01429
G1 X133.794 Y93.677 E0.01567
G1 X133.562 Y93.235 E0.01567
G1 X133.457 Y92.808 E0.01379
M204 S1000
G1 X133.823 Y92.718 F10800.000
M204 S500
G1 F1200.000
G1 X133.819 Y92.296 E0.01323
G1 X133.917 Y91.900 E0.01280
G1 X134.107 Y91.538 E0.01280
G1 X134.377 Y91.233 E0.01280
G1 X134.720 Y90.997 E0.01303
G1 X135.134 Y90.851 E0.01376
G1 X135.500 Y90.807 E0.01157
G1 X135.905 Y90.856 E0.01280
G1 X136.287 Y91.001 E0.01280
G1 X136.623 Y91.233 E0.01280
G1 X136.893 Y91.538 E0.01280
G1 X137.083 Y91.900 E0.01280
G1 X137.181 Y92.296 E0.01280
G1 X137.181 Y92.704 E0.01280
G1 X137.083 Y93.100 E0.01280
G1 X136.893 Y93.461 E0.01280
G1 X136.623 Y93.767 E0.01280
G1 X136.287 Y93.999 E0.01280
G1 X135.905 Y94.144 E0.01280
G1 X135.500 Y94.193 E0.01280
G1 X135.087 Y94.143 E0.01303
G1 X134.681 Y93.977 E0.01376
G1 X134.377 Y93.767 E0.01157
G1 X134.107 Y93.461 E0.01280
G1 X133.917 Y93.100 E0.01280
G1 X133.837 Y92.776 E0.01047
M204 S1000
G1 X134.197 Y92.658 F10800.000
M204 S500
G1 F1200.000
G1 X134.197 Y92.342 E0.00992
G1 X134.272 Y92.034 E0.00992
G1 X134.419 Y91.754 E0.00992
G1 X134.629 Y91.517 E0.00992
G1 X134.892 Y91.336 E0.01001
G1 X135.220 Y91.221 E0.01089
G1 X135.500 Y91.187 E0.00885
G1 X135.814 Y91.225 E0.00992
G1 X136.110 Y91.337 E0.00992
G1 X136.371 Y91.517 E0.00992
G1 X136.581 Y91.754 E0.00992
G1 X136.728 Y92.034 E0.00992
G1 X136.803 Y92.342 E0.00992
G1 X136.803 Y92.658 E0.00992
G1 X136.728 Y92.965 E0.00992
G1 X136.581 Y93.246 E0.00992
G1 X136.371 Y93.483 E0.00992
G1 X136.110 Y93.662 E0.00992
G1 X135.814 Y93.775 E0.00992
G1 X135.500 Y93.813 E0.00992
G1 X135.183 Y93.774 E0.01001
G1 X134.862 Y93.643 E0.01089
G1 X134.629 Y93.483 E0.00885
G1 X134.419 Y93.246 E0.00992
G1 X134.272 Y92.965 E0.00992
G1 X134.211 Y92.716 E0.00804
M204 S1000
G1 X133.905 Y92.534 F10800.000
G1 F8640.000
G1 X134.197 Y92.342 E-0.08660
G1 X134.272 Y92.034 E-0.07309
G1 X134.419 Y91.754 E-0.07309
G1 X134.629 Y91.517 E-0.07309
G1 X134.892 Y91.336 E-0.07372
G1 X135.220 Y91.221 E-0.08018
G1 X135.500 Y91.187 E-0.06519
G1 X135.814 Y91.225 E-0.07309
G1 X136.110 Y91.337 E-0.07309
G1 X136.371 Y91.517 E-0.07309
G1 X136.416 Y91.568 E-0.01579
G1 E-0.04000 F2100.00000
G1 Z0.800 F10800.000
G1 X135.500 Y102.927
G1 Z0.200
G1 E0.80000 F2100.00000
M204 S500
G1 F1200.000
G1 X135.996 Y102.987 E0.01567
G1 X136.463 Y103.165 E0.01567
G1 X136.874 Y103.448 E0.01567
G1 X137.206 Y103.822 E0.01567
G1 X137.438 Y104.265 E0.01567
G1 X137.558 Y104.750 E0.01567
G1 X137.558 Y105.250 E0.01567
G1 X137.438 Y105.735 E0.01567
G1 X137.206 Y106.177 E0.01567
G1 X136.874 Y106.551 E0.01567
G1 X136.463 Y106.835 E0.01567
G1 X135.996 Y107.012 E0.01567
G1 X135.500 Y107.073 E0.01567
G1 X134.992 Y107.011 E0.01606
G1 X134.501 Y106.810 E0.01663
G1 X134.126 Y106.551 E0.01429
G1 X133.794 Y106.177 E0.01567
G1 X133.562 Y105.735 E0.01567
G1 X133.442 Y105.250 E0.01567
G1 X133.442 Y104.750 E0.01567
G1 X133.562 Y104.265 E0.01567
G1 X133.794 Y103.822 E0.01567
G1 X134.126 Y103.448 E0.01567
G1 X134.547 Y103.157 E0.01606
G1 X135.048 Y102.982 E0.01663
G1 X135.440 Y102.934 E0.01241
M204 S1000
G1 X135.486 Y103.309 F10800.000
M204 S500
G1 F1200.000
G1 X135.905 Y103.356 E0.01323
G1 X136.287 Y103.501 E0.01280
G1 X136.623 Y103.733 E0.01280
G1 X136.893 Y104.038 E0.01280
G1 X137.083 Y104.400 E0.01280
G1 X137.181 Y104.796 E0.01280
G1 X137.181 Y105.204 E0.01280
G1 X137.083 Y105.600 E0.01280
G1 X136.893 Y105.961 E0.01280
G1 X136.623 Y106.267 E0.01280
G1 X136.287 Y106.499 E0.01280
G1 X135.905 Y106.644 E0.01280
G1 X135.500 Y106.693 E0.01280
G1 X135.087 Y106.643 E0.01303
G1 X134.681 Y106.477 E0.01376
G1 X134.377 Y106.267 E0.01157
G1 X134.107 Y105.961 E0.01280
G1 X133.917 Y105.600 E0.01280
G1 X133.819 Y105.204 E0.01280
G1 X133.819 Y104.796 E0.01280
G1 X133.917 Y104.400 E0.01280
G1 X134.107 Y104.038 E0.01280
G1 X134.377 Y103.733 E0.01280
G1 X134.720 Y103.497 E0.01303
