; generated by PrusaSlicer 2.2.0+win64 on 2021-11-07 at 14:46:44 UTC

; 

; external perimeters extrusion width = 0.45mm
; perimeters extrusion width = 0.45mm
; infill extrusion width = 0.45mm
; solid infill extrusion width = 0.45mm
; top infill extrusion width = 0.40mm
; support material extrusion width = 0.35mm
; first layer extrusion width = 0.42mm

M73 P0 R35
M73 Q0 S36
M201 X1000 Y1000 Z200 E5000 ; sets maximum accelerations, mm/sec^2
M203 X200 Y200 Z12 E120 ; sets maximum feedrates, mm/sec
M204 P1250 R1250 T1250 ; sets acceleration (P, T) and retract acceleration (R), mm/sec^2
M205 X8.00 Y8.00 Z0.40 E4.50 ; sets the jerk limits, mm/sec
M205 S0 T0 ; sets the minimum extruding and travel feed rate, mm/sec
M107
M862.3 P "MK3S" ; printer model check
M862.1 P0.4 ; nozzle diameter check
M115 U3.10.0 ; tell printer latest fw version
G90 ; use absolute coordinates
M83 ; extruder relative mode
M104 S230 ; set extruder temp
M140 S85 ; set bed temp
M190 S85 ; wait for bed temp
M109 S230 ; wait for extruder temp
G28 W ; home all without mesh bed level
G80 ; mesh bed leveling
G1 Y-3.0 F1000.0 ; go outside print area
G92 E0.0
G1 X60.0 E9.0 F1000.0 ; intro line
M73 Q0 S36
M73 P0 R35
G1 X100.0 E12.5 F1000.0 ; intro line
G92 E0.0
M221 S95

; Don't change E values below. Excessive value can damage the printer.
M907 E430 ; set extruder motor current
G21 ; set units to millimeters
G90 ; use absolute coordinates
M83 ; use relative distances for extrusion
M900 K0.08 ; Filament gcode LA 1.5
M900 K45 ; Filament gcode LA 1.0
;BEFORE_LAYER_CHANGE
G92 E0.0
;0.2


G1 E-1.40000 F2100.00000
G1 Z0.200 F10800.000
;AFTER_LAYER_CHANGE
;0.2
G1 Z0.400
G1 X95.677 Y71.971
G1 Z0.200
G1 E1.40000 F2100.00000
M204 S1000
G1 F1200.000
G1 X96.453 Y71.192 E0.03448
G1 X97.363 Y70.616 E0.03377
G1 X98.392 Y70.250 E0.03424
G1 X99.420 Y70.124 E0.03246
G1 X150.504 Y70.123 E1.60170
G1 X151.544 Y70.236 E0.03282
G1 X152.427 Y70.525 E0.02912
G1 X153.333 Y71.039 E0.03266
G1 X153.718 Y71.343 E0.01538
G1 X154.348 Y72.004 E0.02864
G1 X154.904 Y72.905 E0.03317
G1 X155.249 Y73.889 E0.03270
G1 X155.373 Y74.867 E0.03091
G1 X155.377 Y135.038 E1.88663
G1 X155.265 Y136.041 E0.03163
G1 X154.995 Y136.873 E0.02745
G1 X154.323 Y138.029 E0.04191
G1 X153.547 Y138.808 E0.03448
G1 X152.626 Y139.389 E0.03412
G1 X151.596 Y139.752 E0.03424
G1 X150.534 Y139.877 E0.03353
G1 X99.454 Y139.877 E1.60158
G1 X98.456 Y139.764 E0.03151
G1 X97.623 Y139.494 E0.02745
G1 X96.471 Y138.823 E0.04179
G1 X95.692 Y138.047 E0.03448
G1 X95.111 Y137.126 E0.03412
G1 X94.747 Y136.093 E0.03436
G1 X94.623 Y135.027 E0.03365
G1 X94.623 Y74.962 E1.88329
G1 X94.735 Y73.959 E0.03163
G1 X95.005 Y73.127 E0.02745
G1 X95.647 Y72.023 E0.04003
; printing object shielding.stl id:0 copy 0
G1 F8640.000
G1 X96.453 Y71.192 E-0.26734
G1 X97.363 Y70.616 E-0.24868
G1 X98.392 Y70.250 E-0.25217
G1 X99.420 Y70.124 E-0.23904
G1 X100.818 Y70.124 E-0.32277
G1 E-0.07000 F2100.00000
G1 Z0.400 F10800.000
G1 X99.881 Y132.356
G1 Z0.200
G1 E1.40000 F2100.00000
G1 F1200.000
G1 X100.293 Y132.268 E0.01320
G1 X100.707 Y132.268 E0.01296
G1 X101.119 Y132.356 E0.01320
G1 X101.499 Y132.550 E0.01339
G1 X101.819 Y132.831 E0.01335
G1 X102.061 Y133.181 E0.01334
G1 X102.212 Y133.578 E0.01333
G1 X102.263 Y134.000 E0.01333
G1 X102.212 Y134.422 E0.01333
G1 X102.061 Y134.819 E0.01333
G1 X101.820 Y135.169 E0.01333
G1 X101.502 Y135.451 E0.01333
G1 X101.125 Y135.648 E0.01333
G1 X100.713 Y135.750 E0.01333
G1 X100.287 Y135.750 E0.01333
G1 X99.875 Y135.648 E0.01333
G1 X99.498 Y135.451 E0.01333
G1 X99.180 Y135.169 E0.01333
G1 X98.939 Y134.819 E0.01333
G1 X98.788 Y134.422 E0.01333
G1 X98.737 Y134.000 E0.01333
G1 X98.788 Y133.578 E0.01333
G1 X98.939 Y133.181 E0.01333
G1 X99.181 Y132.831 E0.01334
G1 X99.501 Y132.550 E0.01335
G1 X99.828 Y132.383 E0.01151
G1 X99.955 Y131.963 F10800.000
G1 F8640.000
G1 X100.293 Y132.268 E-0.11065
G1 X100.707 Y132.268 E-0.09547
G1 X101.119 Y132.356 E-0.09721
G1 X101.499 Y132.550 E-0.09860
G1 X101.819 Y132.831 E-0.09831
G1 X102.061 Y133.181 E-0.09823
G1 X102.212 Y133.578 E-0.09816
G1 X102.263 Y134.000 E-0.09814
G1 X102.212 Y134.422 E-0.09814
G1 X102.061 Y134.819 E-0.09814
G1 X101.820 Y135.169 E-0.09814
G1 X101.502 Y135.451 E-0.09814
G1 X101.125 Y135.648 E-0.09814
G1 X100.938 Y135.695 E-0.04454
G1 E-0.07000 F2100.00000
G1 Z0.400 F10800.000
G1 X99.881 Y77.644
G1 Z0.200
G1 E1.40000 F2100.00000
G1 F1200.000
G1 X99.501 Y77.450 E0.01339
G1 X99.181 Y77.169 E0.01335
G1 X98.939 Y76.819 E0.01334
G1 X98.788 Y76.422 E0.01333
G1 X98.737 Y76.000 E0.01333
G1 X98.788 Y75.578 E0.01333
G1 X98.939 Y75.181 E0.01333
G1 X99.180 Y74.831 E0.01333
G1 X99.498 Y74.549 E0.01333
G1 X99.875 Y74.352 E0.01333
G1 X100.287 Y74.250 E0.01333
G1 X100.713 Y74.250 E0.01333
G1 X101.125 Y74.352 E0.01333
G1 X101.502 Y74.549 E0.01333
G1 X101.820 Y74.831 E0.01333
G1 X102.061 Y75.181 E0.01333
G1 X102.212 Y75.578 E0.01333
G1 X102.263 Y76.000 E0.01333
G1 X102.212 Y76.422 E0.01333
G1 X102.061 Y76.819 E0.01333
G1 X101.819 Y77.169 E0.01334
G1 X101.499 Y77.450 E0.01335
G1 X101.119 Y77.644 E0.01339
G1 X100.707 Y77.732 E0.01320
G1 X100.293 Y77.732 E0.01296
G1 X99.940 Y77.657 E0.01132
G1 X99.575 Y77.901 F10800.000
G1 F8640.000
G1 X99.501 Y77.450 E-0.11204
G1 X99.181 Y77.169 E-0.09831
G1 X98.939 Y76.819 E-0.09823
G1 X98.788 Y76.422 E-0.09816
G1 X98.737 Y76.000 E-0.09814
G1 X98.788 Y75.578 E-0.09814
G1 X98.939 Y75.181 E-0.09814
G1 X99.180 Y74.831 E-0.09814
G1 X99.498 Y74.549 E-0.09814
G1 X99.875 Y74.352 E-0.09814
G1 X100.287 Y74.250 E-0.09814
G1 X100.713 Y74.250 E-0.09814
G1 X101.125 Y74.352 E-0.09814
G1 X101.279 Y74.432 E-0.04002
G1 E-0.07000 F2100.00000
G1 Z0.400 F10800.000
G1 X148.283 Y132.236
G1 Z0.200
G1 E1.40000 F2100.00000
G1 F1200.000
G1 X148.740 Y131.996 E0.01620
G1 X149.242 Y131.873 E0.01620
G1 X149.758 Y131.873 E0.01620
G1 X150.260 Y131.996 E0.01620
G1 X150.717 Y132.236 E0.01620
G1 X151.104 Y132.579 E0.01620
G1 X151.397 Y133.004 E0.01620
G1 X151.581 Y133.487 E0.01620
G1 X151.643 Y134.000 E0.01620
G1 X151.581 Y134.513 E0.01620
G1 X151.397 Y134.996 E0.01620
G1 X151.104 Y135.421 E0.01620
G1 X150.717 Y135.764 E0.01620
G1 X150.260 Y136.004 E0.01620
G1 X149.758 Y136.127 E0.01620
G1 X149.242 Y136.127 E0.01620
G1 X148.740 Y136.004 E0.01620
G1 X148.283 Y135.764 E0.01620
G1 X147.896 Y135.421 E0.01620
G1 X147.603 Y134.996 E0.01620
G1 X147.419 Y134.513 E0.01620
G1 X147.357 Y134.000 E0.01620
G1 X147.419 Y133.487 E0.01620
G1 X147.603 Y133.004 E0.01620
G1 X147.896 Y132.579 E0.01620
G1 X148.238 Y132.276 E0.01432
G1 X148.488 Y132.559 F10800.000
G1 F1200.000
G1 X148.875 Y132.352 E0.01376
G1 X149.287 Y132.250 E0.01333
G1 X149.713 Y132.250 E0.01333
G1 X150.125 Y132.352 E0.01333
G1 X150.502 Y132.549 E0.01333
G1 X150.820 Y132.831 E0.01333
G1 X151.061 Y133.181 E0.01333
G1 X151.212 Y133.578 E0.01333
G1 X151.263 Y134.000 E0.01333
G1 X151.212 Y134.422 E0.01333
G1 X151.061 Y134.819 E0.01333
G1 X150.820 Y135.169 E0.01333
G1 X150.502 Y135.451 E0.01333
G1 X150.125 Y135.648 E0.01333
G1 X149.713 Y135.750 E0.01333
G1 X149.287 Y135.750 E0.01333
G1 X148.875 Y135.648 E0.01333
G1 X148.498 Y135.451 E0.01333
G1 X148.180 Y135.169 E0.01333
G1 X147.939 Y134.819 E0.01333
G1 X147.788 Y134.422 E0.01333
G1 X147.737 Y134.000 E0.01333
G1 X147.788 Y133.578 E0.01333
G1 X147.939 Y133.181 E0.01333
G1 X148.180 Y132.831 E0.01333
G1 X148.443 Y132.598 E0.01100
G1 X148.453 Y132.160 F10800.000
G1 F8640.000
G1 X148.875 Y132.352 E-0.11485
G1 X149.287 Y132.250 E-0.09814
G1 X149.713 Y132.250 E-0.09814
G1 X150.125 Y132.352 E-0.09814
G1 X150.502 Y132.549 E-0.09814
G1 X150.820 Y132.831 E-0.09814
G1 X151.061 Y133.181 E-0.09814
G1 X151.212 Y133.578 E-0.09814
G1 X151.263 Y134.000 E-0.09814
G1 X151.212 Y134.422 E-0.09814
G1 X151.061 Y134.819 E-0.09814
G1 X150.820 Y135.169 E-0.09814
G1 X150.502 Y135.451 E-0.09814
G1 X150.358 Y135.526 E-0.03751
G1 E-0.07000 F2100.00000
G1 Z0.400 F10800.000
G1 X149.242 Y78.127
G1 Z0.200
G1 E1.40000 F2100.00000
G1 F1200.000
G1 X148.740 Y78.004 E0.01620
G1 X148.283 Y77.764 E0.01620
G1 X147.896 Y77.421 E0.01620
G1 X147.603 Y76.996 E0.01620
G1 X147.419 Y76.513 E0.01620
G1 X147.357 Y76.000 E0.01620
G1 X147.419 Y75.487 E0.01620
G1 X147.603 Y75.004 E0.01620
G1 X147.896 Y74.579 E0.01620
G1 X148.283 Y74.236 E0.01620
G1 X148.740 Y73.996 E0.01620
G1 X149.242 Y73.873 E0.01620
G1 X149.758 Y73.873 E0.01620
G1 X150.260 Y73.996 E0.01620
G1 X150.717 Y74.236 E0.01620
G1 X151.104 Y74.579 E0.01620
G1 X151.397 Y75.004 E0.01620
G1 X151.581 Y75.487 E0.01620
G1 X151.643 Y76.000 E0.01620
G1 X151.581 Y76.513 E0.01620
G1 X151.397 Y76.996 E0.01620
G1 X151.104 Y77.421 E0.01620
G1 X150.717 Y77.764 E0.01620
G1 X150.260 Y78.004 E0.01620
G1 X149.758 Y78.127 E0.01620
G1 X149.302 Y78.127 E0.01432
G1 X149.302 Y77.750 F10800.000
G1 F1200.000
G1 X148.875 Y77.648 E0.01376
G1 X148.498 Y77.451 E0.01333
G1 X148.180 Y77.169 E0.01333
G1 X147.939 Y76.819 E0.01333
G1 X147.788 Y76.422 E0.01333
G1 X147.737 Y76.000 E0.01333
G1 X147.788 Y75.578 E0.01333
G1 X147.939 Y75.181 E0.01333
G1 X148.180 Y74.831 E0.01333
G1 X148.498 Y74.549 E0.01333
G1 X148.875 Y74.352 E0.01333
G1 X149.287 Y74.250 E0.01333
G1 X149.713 Y74.250 E0.01333
G1 X150.125 Y74.352 E0.01333
G1 X150.502 Y74.549 E0.01333
G1 X150.820 Y74.831 E0.01333
G1 X151.061 Y75.181 E0.01333
G1 X151.212 Y75.578 E0.01333
G1 X151.263 Y76.000 E0.01333
G1 X151.212 Y76.422 E0.01333
G1 X151.061 Y76.819 E0.01333
G1 X150.820 Y77.169 E0.01333
G1 X150.502 Y77.451 E0.01333
G1 X150.125 Y77.648 E0.01333
G1 X149.713 Y77.750 E0.01333
G1 X149.362 Y77.750 E0.01100
G1 X149.063 Y78.071 F10800.000
G1 F8640.000
G1 X148.875 Y77.648 E-0.11485
G1 X148.498 Y77.451 E-0.09814
G1 X148.180 Y77.169 E-0.09814
G1 X147.939 Y76.819 E-0.09814
G1 X147.788 Y76.422 E-0.09814
G1 X147.737 Y76.000 E-0.09814
G1 X147.788 Y75.578 E-0.09814
G1 X147.939 Y75.181 E-0.09814
G1 X148.180 Y74.831 E-0.09814
G1 X148.498 Y74.549 E-0.09814
G1 X148.875 Y74.352 E-0.09814
G1 X149.287 Y74.250 E-0.09814
G1 X149.713 Y74.250 E-0.09814
G1 X149.870 Y74.289 E-0.03751
G1 E-0.07000 F2100.00000
G1 Z0.400 F10800.000
G1 X105.287 Y132.287
G1 Z0.200
G1 E1.40000 F2100.00000
G1 F1200.000
G1 X105.287 Y77.713 E1.71115
G1 X101.770 Y77.714 E0.11027
G1 X102.103 Y77.422 E0.01387
G1 X102.397 Y76.996 E0.01624
G1 X102.581 Y76.513 E0.01621
G1 X102.643 Y76.000 E0.01620
G1 X102.581 Y75.487 E0.01620
G1 X102.397 Y75.004 E0.01620
G1 X102.104 Y74.579 E0.01620
G1 X101.717 Y74.236 E0.01620
G1 X101.260 Y73.996 E0.01620
G1 X100.758 Y73.873 E0.01620
G1 X100.242 Y73.873 E0.01620
G1 X99.740 Y73.996 E0.01620
G1 X99.283 Y74.236 E0.01620
G1 X98.896 Y74.579 E0.01620
G1 X98.603 Y75.004 E0.01620
G1 X98.419 Y75.487 E0.01620
G1 X98.357 Y76.000 E0.01620
G1 X98.419 Y76.513 E0.01620
G1 X98.603 Y76.996 E0.01621
G1 X98.897 Y77.422 E0.01624
G1 X99.183 Y77.672 E0.01191
G1 X98.759 Y77.539 E0.01393
G1 X98.435 Y77.335 E0.01199
G1 X98.165 Y77.065 E0.01199
G1 X97.961 Y76.741 E0.01199
G1 X97.835 Y76.380 E0.01199
G1 X97.787 Y75.956 E0.01339
G1 X97.787 Y75.044 E0.02858
G1 X97.835 Y74.620 E0.01339
G1 X97.961 Y74.259 E0.01199
G1 X98.165 Y73.935 E0.01199
G1 X98.435 Y73.665 E0.01199
G1 X98.759 Y73.461 E0.01199
G1 X99.120 Y73.335 E0.01199
G1 X99.544 Y73.287 E0.01339
G1 X150.456 Y73.287 E1.59630
G1 X150.880 Y73.335 E0.01339
G1 X151.241 Y73.461 E0.01199
G1 X151.565 Y73.665 E0.01199
G1 X151.835 Y73.935 E0.01199
G1 X152.039 Y74.259 E0.01199
G1 X152.165 Y74.620 E0.01199
G1 X152.213 Y75.044 E0.01339
G1 X152.213 Y134.956 E1.87849
G1 X152.165 Y135.380 E0.01339
G1 X152.039 Y135.741 E0.01199
G1 X151.835 Y136.065 E0.01199
G1 X151.565 Y136.335 E0.01199
G1 X151.241 Y136.539 E0.01199
G1 X150.880 Y136.665 E0.01199
G1 X150.456 Y136.713 E0.01339
G1 X99.544 Y136.713 E1.59630
G1 X99.120 Y136.665 E0.01339
G1 X98.759 Y136.539 E0.01199
G1 X98.435 Y136.335 E0.01199
G1 X98.165 Y136.065 E0.01199
G1 X97.961 Y135.741 E0.01199
G1 X97.835 Y135.380 E0.01199
G1 X97.787 Y134.956 E0.01339
G1 X97.787 Y134.044 E0.02858
G1 X97.835 Y133.620 E0.01339
G1 X97.961 Y133.259 E0.01199
G1 X98.165 Y132.935 E0.01199
G1 X98.435 Y132.665 E0.01199
G1 X98.759 Y132.461 E0.01199
G1 X99.183 Y132.328 E0.01393
G1 X98.897 Y132.578 E0.01191
G1 X98.603 Y133.004 E0.01624
G1 X98.419 Y133.487 E0.01621
G1 X98.357 Y134.000 E0.01620
G1 X98.419 Y134.513 E0.01620
G1 X98.603 Y134.996 E0.01620
G1 X98.896 Y135.421 E0.01620
G1 X99.283 Y135.764 E0.01620
G1 X99.740 Y136.004 E0.01620
G1 X100.242 Y136.127 E0.01620
G1 X100.758 Y136.127 E0.01620
G1 X101.260 Y136.004 E0.01620
G1 X101.717 Y135.764 E0.01620
G1 X102.104 Y135.421 E0.01620
G1 X102.397 Y134.996 E0.01620
G1 X102.581 Y134.513 E0.01620
G1 X102.643 Y134.000 E0.01620
G1 X102.581 Y133.487 E0.01620
G1 X102.397 Y133.004 E0.01621
G1 X102.103 Y132.578 E0.01624
G1 X101.770 Y132.286 E0.01387
G1 X105.227 Y132.287 E0.10839
G1 X104.910 Y131.910 F10800.000
G1 F1200.000
G1 X104.910 Y78.090 E1.68749
G1 X101.498 Y78.091 E0.10698
G1 X100.500 Y78.109 E0.03130
G1 X99.526 Y78.091 E0.03053
G1 X99.036 Y78.035 E0.01548
G1 X98.594 Y77.881 E0.01467
G1 X98.199 Y77.632 E0.01466
G1 X97.868 Y77.301 E0.01466
G1 X97.619 Y76.906 E0.01466
G1 X97.465 Y76.464 E0.01466
G1 X97.410 Y75.977 E0.01538
G1 X97.410 Y75.023 E0.02991
G1 X97.465 Y74.536 E0.01538
G1 X97.619 Y74.094 E0.01466
G1 X97.868 Y73.699 E0.01466
G1 X98.199 Y73.368 E0.01466
G1 X98.594 Y73.119 E0.01466
G1 X99.036 Y72.965 E0.01466
G1 X99.523 Y72.910 E0.01538
G1 X150.477 Y72.910 E1.59763
G1 X150.964 Y72.965 E0.01538
G1 X151.406 Y73.119 E0.01466
G1 X151.801 Y73.368 E0.01466
G1 X152.132 Y73.699 E0.01466
G1 X152.381 Y74.094 E0.01466
G1 X152.535 Y74.536 E0.01466
G1 X152.590 Y75.023 E0.01538
G1 X152.590 Y134.977 E1.87981
G1 X152.535 Y135.464 E0.01538
G1 X152.381 Y135.906 E0.01466
G1 X152.132 Y136.301 E0.01466
G1 X151.801 Y136.632 E0.01466
G1 X151.406 Y136.881 E0.01466
G1 X150.964 Y137.035 E0.01466
G1 X150.477 Y137.090 E0.01538
G1 X99.523 Y137.090 E1.59763
G1 X99.036 Y137.035 E0.01538
G1 X98.594 Y136.881 E0.01466
G1 X98.199 Y136.632 E0.01466
G1 X97.868 Y136.301 E0.01466
G1 X97.619 Y135.906 E0.01466
G1 X97.465 Y135.464 E0.01466
G1 X97.410 Y134.977 E0.01538
G1 X97.410 Y134.023 E0.02991
G1 X97.465 Y133.536 E0.01538
G1 X97.619 Y133.094 E0.01466
G1 X97.868 Y132.699 E0.01466
G1 X98.199 Y132.368 E0.01466
G1 X98.594 Y132.119 E0.01466
G1 X99.036 Y131.965 E0.01467
G1 X99.526 Y131.909 E0.01548
G1 X100.500 Y131.891 E0.03053
G1 X101.498 Y131.909 E0.03130
G1 X104.850 Y131.910 E0.10510
G1 X105.310 Y131.911 F10800.000
G1 F8640.000
G1 X104.856 Y126.150 E-1.33000
G1 E-0.07000 F2100.00000
G1 Z0.400 F10800.000
G1 X101.458 Y132.292
G1 Z0.200
G1 E1.40000 F2100.00000
G1 F1200.000
G1 X101.244 Y132.147 E0.00170
G1 X100.985 Y132.111 E0.00172
G1 X100.015 Y132.111 F10800.000
G1 F1200.000
G1 X99.341 Y132.220 E0.00483
G1 X99.358 Y132.257 F10800.000
G1 F1200.000
G1 X99.908 Y132.090 E0.01118
G1 F8640.000
G1 X99.358 Y132.257 E-0.13275
G1 E-1.26725 F2100.00000
G1 Z0.400 F10800.000
G1 X98.373 Y133.021
G1 Z0.200
G1 E1.40000 F2100.00000
G1 F1200.000
G1 X98.170 Y133.434 E0.00253
G1 X98.112 Y133.683 E0.00339
G1 X98.076 Y133.989 E0.00408
G1 X98.090 Y134.317 E0.00435
G1 X98.107 Y134.588 E0.00588
G1 X98.276 Y134.691 E0.00427
G1 X97.928 Y135.192 F10800.000
G1 F1200.000
G1 X99.308 Y136.572 E0.07344
G1 X99.749 Y136.365 F10800.000
G1 F1200.000
G1 X100.219 Y136.420 E0.00833
G1 X100.807 Y136.419 E0.01034
G1 X101.029 Y136.392 E0.00462
G1 X101.251 Y136.365 E0.00531
G1 X101.543 Y135.983 F10800.000
G1 F1200.000
G1 X101.991 Y136.430 E0.01989
G1 X102.525 Y136.430 E0.01680
G1 X101.992 Y135.898 E0.02368
G1 X102.276 Y135.646 E0.01190
G1 X103.060 Y136.430 E0.03484
G1 X103.594 Y136.430 E0.01680
G1 X102.504 Y135.340 E0.04848
G1 X102.650 Y135.128 E0.00807
G1 X102.698 Y135.000 E0.00432
G1 X104.129 Y136.430 E0.06359
G1 X104.663 Y136.430 E0.01680
G1 X102.845 Y134.612 E0.08082
G1 X102.910 Y134.142 E0.01490
G1 X105.198 Y136.430 E0.10169
G1 X105.733 Y136.430 E0.01680
G1 X102.876 Y133.573 E0.12699
G1 X102.857 Y133.419 E0.00489
G1 X102.649 Y132.871 E0.01841
G1 X102.517 Y132.680 E0.00733
G1 X106.267 Y136.430 E0.16672
G1 X106.802 Y136.430 E0.01680
G1 X102.941 Y132.569 E0.17162
G1 X103.476 Y132.569 E0.01681
G1 X107.336 Y136.430 E0.17161
G1 X107.871 Y136.430 E0.01680
G1 X104.011 Y132.570 E0.17160
